X: 2
T: Rowan Tree, The
Z: JACKB
S: https://thesession.org/tunes/12278#setting22949
R: strathspey
M: 4/4
L: 1/8
K: Gmaj
V:1
G/>A/ | B2 B>A | B<d d>g | e>d e<g |e>d d>G/A/ |
V:2
G/>D/ | G>F E>F | G<D G>A/B/ | c>G c>B | c>B/A/ B/D/E/F/ |
V:1
B>B B>A | B<d e>d | d<B A>G | G3d:||
V:2
G>F E>F | G<D c>A | D2 E>F | G3A:||
V:1
d>g g>f | f>e e>g | d>e e/d/c/B/ | B2 AG/A/ |
V:2
B>A B>G | c>B c>G | B>A BG | GF/E/ F/D/E/F/ |
V:1
B2 B>A|B<d e>d |d>B A2 | G3 G/>B/|
V:2
G>F E>F | G<D c>A | B>D E>F | G3 G/>F/ |
V:1
B2 A>G | G3 ||
V:2
G>D c>d | B3 ||
